X:503
T:The plains of Boyle
R:Hornpipe
O:Ireland
S:My arrangement from various sources
Z:Transcription, arrangement, chords:Mike Long
M:4/4
L:1/8
K:G
FG|\
"D"AFDE "A"FED2|"D"(3(FGA) "G"GB "D"AF De|"D"fedf "A"ed^cA|"C"d=cAB cAGB|\
"D"A2DE "A"FED2|
"D"(3(FGA) "G"GB "D"AF De|"D"fedc "C"(3(ABc) AG|"D"FAD2 D2:|\
|:fg|\
"D"afdf "G"~g2 fe|"D"dfed "A"BAFG|
"D"~A2GB "G"ADFG|"D"~A2 GB "A"A2 fg|\
"D"afdf "G"(3(gag) fe|"D"dfed "A"BAFG|"D"~A2 AF "G"GBAG|"A"FAD2 "D"D2:|
